plugins/plugin-git/che-plugin-git-ext-git/src/main/resources/org/eclipse/che/ide/ext/git/client/history/history.svg

<?xml version="1.0" encoding="UTF-8" standalone="no"?>
<!--

    Copyright (c) 2012-2016 Codenvy, S.A.
    All rights reserved. This program and the accompanying materials
    are made available under the terms of the Eclipse Public License v1.0
    which accompanies this distribution, and is available at
    http://www.eclipse.org/legal/epl-v10.html

    Contributors:
      Codenvy, S.A. - initial API and implementation

-->
<svg xmlns="http://www.w3.org/2000/svg" enable-background="new 0 0 32 32" xml:space="preserve" height="32px" width="32px" version="1.1" y="0px" x="0px" xmlns:cc="http://creativecommons.org/ns#" xmlns:dc="http://purl.org/dc/elements/1.1/" viewBox="0 0 32 32"><g id="_x30_4" transform="matrix(1.875,0,0,1.875,-13.976695,-14.084746)"><g id="g5" clip-rule="evenodd" fill-rule="evenodd"><path id="_x3C_Path_x3E__12_" d="m21.001,8h-5.999c-1.1,0-2,0.9-2,2v6h1.843c0.084,0,0.156,0.072,0.156,0.156l-0.001,5.844h6.001c1.1,0,2-0.899,2-2v-10c0-1.1-0.901-2-2-2zm-5.999,3v-1h5.999v1h-5.999zm5.999,1v6h-5.999v-6h5.999zm0,7v1h-5.999v-1h5.999z" fill="#e0b91d"/><path id="_x3C_Path_x3E__11_" d="M15,23.844c0,0.084-0.072,0.156-0.156,0.156h-5.689c-0.083,0-0.155-0.07-0.155-0.156v-7.688c0-0.086,0.072-0.156,0.156-0.156h5.688c0.084,0,0.156,0.072,0.156,0.156,0.001,2.231,0,5.458,0,7.688zm-1.5-3.594h-3c-0.136,0-0.249,0.113-0.249,0.249v0.501c0,0.137,0.111,0.25,0.249,0.25h3c0.138,0,0.25-0.112,0.25-0.25v-0.501c0-0.138-0.115-0.249-0.25-0.249zm0-1.5h-3c-0.136,0-0.249,0.113-0.249,0.249v0.501c0,0.136,0.111,0.25,0.249,0.25h3c0.138,0,0.25-0.112,0.25-0.25v-0.501c0-0.138-0.115-0.249-0.25-0.249zm-3.5,4.25h4c0-1.667,0.001-4.332,0.001-6h-4.001v6z" fill="#3193d4"/></g></g></svg>

<?xml version="1.0" encoding="utf-8"?>
<!--

    Copyright (c) 2012-2016 Codenvy, S.A.
    All rights reserved. This program and the accompanying materials
    are made available under the terms of the Eclipse Public License v1.0
    which accompanies this distribution, and is available at
    http://www.eclipse.org/legal/epl-v10.html

    Contributors:
      Codenvy, S.A. - initial API and implementation

-->
<!DOCTYPE svg PUBLIC "-//W3C//DTD SVG 1.1//EN" "http://www.w3.org/Graphics/SVG/1.1/DTD/svg11.dtd">
<svg version="1.1" xmlns="http://www.w3.org/2000/svg" xmlns:xlink="http://www.w3.org/1999/xlink" x="0px" y="0px" width="32px"
	 height="32px" viewBox="0 0 32 32" enable-background="new 0 0 32 32" xml:space="preserve">
<g id="_x30_4">
	<g>
		<path id="_x3C_Path_x3E__12_" fill-rule="evenodd" clip-rule="evenodd" fill="#E0B91D" d="M21.001,8h-5.999c-1.1,0-2,0.9-2,2v6
			h1.843c0.084,0,0.156,0.072,0.156,0.156L15,22h0.002h5.999c1.1,0,2-0.899,2-2c0-2.833,0-7.167,0-10C23.001,8.9,22.1,8,21.001,8
			L21.001,8z M15.002,11v-1h5.999v1H15.002L15.002,11z M21.001,12v6h-5.999v-6H21.001L21.001,12z M21.001,19v1h-5.999v-1H21.001z"/>
		<path id="_x3C_Path_x3E__11_" fill-rule="evenodd" clip-rule="evenodd" fill="#3193D4" d="M15,23.844
			C15,23.928,14.928,24,14.844,24H9.155C9.072,24,9,23.93,9,23.844c0-2.229,0-5.457,0-7.688C9,16.07,9.072,16,9.156,16h5.688
			c0.084,0,0.156,0.072,0.156,0.156C15.001,18.387,15,21.614,15,23.844L15,23.844z M13.5,20.25h-3c-0.136,0-0.249,0.113-0.249,0.249
			V21c0,0.137,0.111,0.25,0.249,0.25h3c0.138,0,0.25-0.112,0.25-0.25v-0.501C13.75,20.361,13.635,20.25,13.5,20.25L13.5,20.25z
			 M13.5,18.75h-3c-0.136,0-0.249,0.113-0.249,0.249V19.5c0,0.136,0.111,0.25,0.249,0.25h3c0.138,0,0.25-0.112,0.25-0.25v-0.501
			C13.75,18.861,13.635,18.75,13.5,18.75L13.5,18.75z M10,23h4c0-1.667,0.001-4.332,0.001-6H10C10,18.668,10,21.333,10,23z"/>
	</g>
</g>
</svg>
